packages/core/src/svgs/srlty.svg

<svg width="24" height="24" viewBox="0 0 24 24" fill="none" xmlns="http://www.w3.org/2000/svg">
<g clip-path="url(#clip0_31_19266)">
<path d="M0 0H24V24H0V0Z" fill="url(#paint0_linear_31_19266)"/>
<path fill-rule="evenodd" clip-rule="evenodd" d="M7.32854 5.14307C6.15854 8.00164 6.76282 10.8302 7.21282 11.8888L5.14282 13.7145H6.67711L9.98996 10.9288C10.1614 11.3574 10.5 12.3174 10.5 12.7545C10.5 12.9945 10.32 13.4831 10.1143 14.0231C9.86568 14.7045 9.58282 15.4716 9.58282 15.9516C9.58282 16.6374 9.97711 17.6059 10.17 18.0045H13.7785C13.9714 17.6145 14.3528 16.6545 14.3528 15.9474C14.3528 15.5016 14.1385 14.8931 13.9243 14.2931C13.7185 13.7145 13.5171 13.1531 13.5171 12.7502C13.5171 12.1074 13.8557 11.2674 14.0228 10.9331L17.3057 13.7145H18.8571L16.7828 11.8931C17.8157 9.09878 17.1471 6.23592 16.6843 5.14735L13.3285 9.22735C13.2128 9.12021 12.7885 9.0045 11.9914 9.0045C11.1943 9.0045 10.6628 9.12021 10.5 9.22735L7.32854 5.14307ZM7.76996 7.31592L9.66425 9.76735L7.98425 11.1259C7.76996 10.5259 7.43139 8.93164 7.76996 7.31592ZM16.1485 7.31592L14.2543 9.76735L15.9385 11.1259C16.1528 10.5259 16.4914 8.93164 16.1528 7.31592H16.1485ZM10.8085 10.1788C11.0057 10.8602 11.3957 12.3516 11.3957 12.8831C11.3957 13.2002 11.2071 13.7359 11.01 14.2974C10.7871 14.9102 10.56 15.5574 10.56 15.9774C10.56 16.6202 10.7657 17.0574 10.8685 17.1431H11.5714V15.8574H12.4285V17.1431H12.9685C13.0971 17.0059 13.3543 16.5002 13.3543 15.9774C13.3543 15.6345 13.1143 14.9488 12.8828 14.2974C12.6771 13.7059 12.4757 13.1402 12.4757 12.8831C12.4757 12.4545 12.8957 10.9031 13.1057 10.1788C12.9343 10.0802 12.4585 9.87878 11.9314 9.87878C11.4085 9.87878 10.9628 10.0802 10.8085 10.1788ZM6.42854 18.0002V14.9445L7.28568 14.1645V17.1431H9.10282C9.10282 17.1431 9.31711 17.6874 9.42854 18.0002H6.42854ZM17.5714 14.9274V18.0002H14.5714C14.6785 17.6831 14.8971 17.1431 14.8971 17.1431H16.7143V14.1431L17.5714 14.9274Z" fill="url(#paint1_linear_31_19266)"/>
</g>
<defs>
<linearGradient id="paint0_linear_31_19266" x1="4.46571" y1="4.16143" x2="29.2071" y2="32.58" gradientUnits="userSpaceOnUse">
<stop stop-color="#1A1E21"/>
<stop offset="1" stop-color="#06060A"/>
</linearGradient>
<linearGradient id="paint1_linear_31_19266" x1="12" y1="5.14307" x2="12" y2="18.0002" gradientUnits="userSpaceOnUse">
<stop stop-color="#2691FF"/>
<stop offset="1" stop-color="#02D15B"/>
</linearGradient>
<clipPath id="clip0_31_19266">
<rect width="24" height="24" fill="white"/>
</clipPath>
</defs>
</svg>

<svg xmlns="http://www.w3.org/2000/svg" width="24" height="24" fill="none" viewBox="0 0 24 24"><g clip-path="url(#a)"><path fill="url(#b)" d="M0 0h24v24H0z"/><path fill="url(#c)" fill-rule="evenodd" d="M7.329 5.143c-1.17 2.859-.566 5.687-.116 6.746l-2.07 1.826h1.534l3.313-2.786c.171.428.51 1.388.51 1.826 0 .24-.18.728-.386 1.268-.248.681-.531 1.449-.531 1.929 0 .685.394 1.654.587 2.053h3.608c.193-.39.575-1.35.575-2.058 0-.445-.214-1.054-.429-1.654-.205-.578-.407-1.14-.407-1.543 0-.643.339-1.483.506-1.817l3.283 2.781h1.551l-2.074-1.82c1.033-2.795.364-5.658-.099-6.747l-3.356 4.08c-.115-.107-.54-.223-1.337-.223s-1.328.116-1.491.223zm.441 2.173 1.894 2.451-1.68 1.359c-.214-.6-.553-2.194-.214-3.81m8.378 0-1.894 2.451 1.685 1.359c.214-.6.552-2.194.214-3.81zm-5.34 2.863c.198.681.588 2.173.588 2.704 0 .317-.189.853-.386 1.414-.223.613-.45 1.26-.45 1.68 0 .643.206 1.08.308 1.166h.703v-1.286h.857v1.286h.54c.13-.137.386-.643.386-1.166 0-.343-.24-1.028-.471-1.68-.206-.591-.407-1.157-.407-1.414 0-.428.42-1.98.63-2.704a2.6 2.6 0 0 0-1.175-.3c-.522 0-.968.201-1.122.3M6.429 18v-3.056l.858-.78v2.98h1.817s.214.543.326.856zm11.143-3.073V18h-3c.107-.317.326-.857.326-.857h1.817v-3z" clip-rule="evenodd"/></g><defs><linearGradient id="b" x1="4.466" x2="29.207" y1="4.161" y2="32.58" gradientUnits="userSpaceOnUse"><stop stop-color="#1A1E21"/><stop offset="1" stop-color="#06060A"/></linearGradient><linearGradient id="c" x1="12" x2="12" y1="5.143" y2="18" gradientUnits="userSpaceOnUse"><stop stop-color="#2691FF"/><stop offset="1" stop-color="#02D15B"/></linearGradient><clipPath id="a"><path fill="#fff" d="M0 0h24v24H0z"/></clipPath></defs></svg>
